X:1
T:Go Forth
T:Charles Hutchinson Gabriel
T:Go Forth
T:Public Domain
T:Public Domain
C:Charles Hutchinson Gabriel
Z:Public Domain
%%score ( 1 2 ) ( 3 4 )
L:1/8
M:2/4
K:Eb
V:1 treble 
V:2 treble 
V:3 bass 
V:4 bass 
V:1
 E2 | [EG]3 [EF](EF)([EG][FA]) | [GB]4 [EG]2 (ed) | [Ec]2 (de) [EB]2 ([DA][EG]) | %4
w: 1.~Go|with joy and * glad- *|Go forth with *|and song; * All hon- *|
w: 2.~Go|with joy and * glad- *|And spread the *|a- far; * Be- hold, *|
w: 3.~Go|with joy and * glad- *|Pro- claim the *|come sound, * Till all *|
 ([EG]4 [DF]2) E2 | [EG]3 [EF](EF)([EG][FA]) | [GB]4 [FB]2 [Gc]2 | [Fd]2 ([Ec][DB]) [E=A]2 (Bc) | %8
w: praise * and|ry To Christ * our *|be- long. He|has re- * deemed us *|
w: sends * be-|us A bright * and *|ly star. *||
w: hear * the|ry To earth’s * re- *|est bound. *||
 [DB]4- [DB] ||"^Refrain" Bc d | (z G AB) [Ae]2 dc | (GF EF G2) [Ge]2 | %12
w: His *|blood. Re- deemed|* * * us from our|ther * * * * all|
w: ||||
w: ||||
 [Fd]2 ([DF][EG])([FA][GB]) [Ac]2 | ([GB]4 [EG]2) [EB]2 | [Ec]2 [Ec]>[Ec]cedc | (E2 D2 E2) [Ge]2 | %16
w: lost ones * to * His|fold, * O|haste, and bring them in. * *||
w: ||||
w: ||||
 [Fd]2 ([DF][EG])(Ac) [DB]2 | E6 |] %18
w: ||
w: ||
w: ||
V:2
 E2 | x4 E2 x2 | x6 E2 | x2 E2 x4 | x6 E2 | x4 E2 x2 | x8 | x6 E2 | x5 || x3 | e4 x A2 x | B6 x2 | %12
w: forth|ness,|love|or,|glo-|Lord||by|||sin; Ga-|the|
w: forth|ness,|news|He|fore|love-|||||||
w: forth|ness,|wel-|shall|sto-|mot-|||||||
 x8 | x8 | x4 E2 E2 | B6 x2 | x4 D2 x2 | E6 |] %18
w: ||||||
w: ||||||
w: ||||||
V:3
 [E,G,]2 | [E,B,]3 [E,B,](G,A,) [E,B,]2 | [E,E]4 [E,B,]2 [G,B,]2 | A,2 (B,C) [G,B,]2 (F,E,) | %4
w: ~|~ ~ ~ * ~|~ ~ ~|~ ~ * ~ ~ *|
 [B,,B,]6 [E,G,]2 | [E,B,]3 [E,A,](G,A,) [E,B,]2 | [E,E]4 [D,B,]2 [E,B,]2 | %7
w: ~ ~|~ ~ ~ * ~|~ ~ ~|
 [F,B,]2 (=A,B,) [F,C]2 [F,A,]2 | [B,,B,]4- [B,,B,] || z3 | z [E,B,] [F,B,][G,_D] [A,C]2 [A,,E]2 | %11
w: He has * re- deemed|by *||His blood, Re- deemed us|
 (EB,) (G,B,) [E,E]2 [E,B,]2 | [B,,B,]4 (B,2 D2) | [E,E]2 [E,E]2 [E,B,]2 [E,G,]2 | %14
w: from * our * sin; ~|~ ~ *|to His fold, *|
 A,2 A,>A,(A,C)(B,A,) | [G,B,]2 [F,A,]2 [E,G,]2 [E,B,]2 | [B,,B,]2 [B,,B,]2 [B,,B,]2 [B,,A,]2 | %17
w: |||
 [E,G,]6 |] %18
w: |
V:4
 x2 | x4 E,2 x2 | x8 | A,2 A,2 x B,2 x | x8 | x4 E,2 x2 | x8 | x2 F,2 x4 | x5 || x3 | x8 | %11
w: |~||~ ~ ~||~||us||||
 E,2 E,2 x4 | x4 B,,4 | x8 | A,2 A,>A, A,2 A,2 | x8 | x8 | x6 |] %18
w: ~ ~|ones||||||

